src/download.svg

<svg width="24" height="24" viewBox="0 0 24 24" xmlns="http://www.w3.org/2000/svg">
<path fill-rule="evenodd" clip-rule="evenodd" d="M19 9H15V3H9V9H5L12 16L19 9V9ZM5 18V20H19V18H18.3012H17.7893H17.1628H5V18ZM3 20H5V16H3V16.1997V16.3459V16.5249V20V20ZM19 20H21V16H19V16.1997V16.3459V16.5249V20V20Z" fill="currentColor"/>
</svg>

<svg width="24" height="24" viewBox="0 0 24 24" xmlns="http://www.w3.org/2000/svg" xmlns:xlink="http://www.w3.org/1999/xlink">
  <path d="M19 9h-4V3H9v6H5l7 7 7-7zM5 18v2h14v-2H5zm-2 2h2v-4H3v4zm16 0h2v-4h-2v4z" fill="currentColor"/>
</svg>
